X:1
T:James Gibb editions
T:O Thou, whose wondrous love had given - Barnby
%%score [ ( 1 2 ) ( 3 4 ) ]
L:1/8
Q:1/4=80
M:4/4
K:Ab
V:1 treble nm="Midi_74"
V:2 treble 
V:3 bass nm="Midi_74"
V:4 bass 
V:1
"^St Mary Tavy (88. 88. 88)""^O Thou, whose wondrous love had given""^Joseph Barnby\n(1838-96)" E2 | %1
 A2 c2 e2 d2 | c2 B2 A2 || c2 | B2 G2 E2 F2 | G2 F2 E2 || E2 | A2 c2 e2 d2 | c2 B2 A2 || %9
[M:4/4] c2 | c2 G2 F2 E2 | =D2 D2 C2 || E2 | F2 E2 A2 A2 | B2 A2 d2 || d2 | c2 B2 e2 d2 | c4 B4 | %18
 A6 || A4 A4 |] %20
V:2
 E2 | E2 A2 E2 F2 | E2 D2 C2 || =D2 | E2 E2 E2 E2 | E2 =D2 E2 || E2 | E2 A2 _G2 F2 | =G2 G2 A2 || %9
[M:4/4] A2 | G2 C2 C2 C2 | C2 =B,2 C2 || E2 | B,2 B,2 E2 E2 | E2 E2 D2 || D2 | E2 F2 _G2 F2 | %17
 E4 E4 | E6 || F4 E4 |] %20
V:3
 C2 | C2 A,2 A,2 A,2 | A,2 G,2 A,2 || A,2 | B,2 B,2 G,2 C2 | B,2 A,2 G,2 || B,2 | C2 A,2 =A,2 B,2 | %8
 E2 D2 C2 || %9
[M:4/4]"^1. O Thou, whose wondrous love had given\nThine own and only Son for man,\nEre shone the earliest star in heaven\nOr earth was framed or time began.\nAnd chosen us in Him to be\nHis Bride for all eternity:\n\n2. Thou, who hast deigned for us to build\nThe mansions of Jerusalem,\nWith all Thy gifts of goodnesss filled\nAnd rich withcrystal, gold and gem.\nWhose gates and walls and streets declare\nOne glorious name, \"The Lord is there:\"" =D2 | %10
 E2 E2 C2 C2 | %11
 A,2"^5. From everlasting I am Thine\nIn Thy free covenant of grace:\nTo everlasting Thou art mine\nIn faith's response and love's enbrace:\nThis life our Father gave and planned\nIs safe in His Almighty hand. Amen.\n" G,2 E,2 || %12
 E,2 | G,2 G,2 A,2 C2 | %14
"^3. Now in this little space between\nTwo vast eternities of love,\nThis narrow isthmus of things seen\nThy children cross to rest above,\nWilt Thou refuse to be our Guide\nAnd all our daily needs provide?\n\n4. Oh shame upon the faithless heart\nWhich harbours such a thought of Thee!\nMy God, that Thou art what Thou art\nIs promise, aye, and proof to me\nWhile passing through this shadowy vale\nThe cruse of oil shall never fail." C2 C2 A,2 || %15
 A,2 | A,2 A,2 A,2 A,2 | (A,2 E,2) D4 | C6 || D4 C4 |] %20
V:4
 A,2 | A,2 F,2 C,2 D,2 | E,2 E,2 A,2 || F,2 | G,2 G,,2 C,2 A,,2 | B,,2 B,,2 E,2 || G,2 | %7
 A,2 F,2 C,2 D,2 | E,2 E,2 F,2 ||[M:4/4] F,2 | G,2 G,2 A,2 G,2 | F,2 G,2 C,2 || E,2 | %13
 !courtesy!_D,2 E,2 C,2 A,2 | _G,2 A,2 F,2 || F,2 | E,2 D,2 C,2 D,2 | E,4 E,4 | A,,6 || D,4 A,,4 |] %20

